X:9
T:Drowsy Maggie
M:C|
R:Reel
Z:As played by the Ceili band /SE
K:D
~E2BE dEBE|~E2BE AFDF|~E2BE dEBE|1 ~B3c dAFD:|2 ~B3c dAFA|:\
d2fd cdec|defg affe|d2fd cdec|~B3c dAFA|\
d2cd cdec|defg affe|af ge fd ec|BABc dAFD:|
